X: 308
T: Hong yun
L: 1/8
M: 2/4
K: Bb
d' f' g3/ b/ [I:setbarnb 1]| 
f4 | 
c' d' b a/ g/ | 
f4 | 
f gb2 | 
d' a g f | 
b b d g | 
f4 | 
f gb2 | 
d' d' c' d' | 
f d f a | 
g fd2 | 
c> d f a | 
g f d c | 
d' a d'/ f'/ d'/ c'/ | 
b4 | 
f' c'/ d'/ a g | 
f4 | 
c> d f a | 
g f d c | 
d' a d'/ f'/ d'/ c'/ | 
b4 |]

@@@ Tune index: 9182
